X:1
T:Vespers, LM
T:Vespers, LM
T:W. H. Hart, 1874
T:Public Domain Courtesy of the Cyber Hymnal™
C:W. H. Hart, 1874
Z:Public Domain
Z:Courtesy of the Cyber Hymnal™
%%score ( 1 2 ) ( 3 4 )
L:1/8
Q:1/4=110
M:3/4
K:Ab
V:1 treble 
V:2 treble 
V:3 bass 
V:4 bass 
V:1
 [Ec]2 [DB]2 [CA]2 | ([Ge]2 [Fd]2) [Ec]2 | (c2 B2) [_DA]2 | [_DB]6 | [Ec]2 [DB]2 [CA]2 | %5
 ([Ge]2 [Fd]2) [Ec]2 | (B2 G2) [=DF]2 | (E2 [=DF]2 [_DG]2) | [CA]2 [DG]2 [DF]2 | [CE]4 [CA]2 | %10
 [FB]4 [Fd]2 | [=Ec]4 [Fc]2 | (e2 d2) [Fc]2 | [FB]2 [DF]2 [DG]2 | (A2 c2) [DB]2 | [CA]6 |] %16
V:2
 x6 | x6 | =D4 x2 | x6 | x6 | x6 | E4 x2 | E2 x4 | x6 | x6 | x6 | x6 | F4 x2 | x6 | E4 x2 | x6 |] %16
V:3
 [A,,A,]2 [A,,G,]2 [A,,A,]2 | [A,,A,]4 [A,,A,]2 | [B,,A,]4 [F,A,]2 | [E,G,]6 | %4
 [A,,A,]2 [A,,G,]2 [A,,A,]2 | [A,,A,]4 [A,,A,]2 | (G,2 B,2) [B,,A,]2 | (G,2 A,2 B,2) | %8
 [A,,A,]2 [A,,A,]2 [A,,A,]2 | [A,,A,]4 [F,A,]2 | (F,2 B,2) [B,,A,]2 | [C,G,]4 [F,=A,]2 | %12
 [B,,B,]4 [B,,=A,]2 | B,4 [_F,B,]2 | (C2 A,2) [E,G,]2 | [A,,A,]6 |] %16
V:4
 x6 | x6 | x6 | x6 | x6 | x6 | B,,4 x2 | E,6 | x6 | x6 | D,4 x2 | x6 | x6 | D,2 _F,2 x2 | E,4 x2 | %15
 x6 |] %16

